icons/glyphs/glypg-rubber-stamp.svg

<?xml version="1.0" encoding="UTF-8" standalone="no"?><svg height="22" viewBox="0 0 5.8208332 5.8208335" width="22" xmlns="http://www.w3.org/2000/svg"><sodipodi:namedview/><metadata><rdf:RDF><cc:Work><dc:format>image/svg+xml</dc:format><dc:type/><dc:title/><cc:license/><dc:creator><cc:Agent><dc:title>PixelPimps &amp; CodePoets</dc:title></cc:Agent></dc:creator></cc:Work><cc:License><cc:permits/><cc:permits/><cc:requires/><cc:requires/><cc:permits/></cc:License></rdf:RDF></metadata><path d="m2.909242.00000316c-.664388 0-1.2029809.53859289-1.2029809 1.20298094.0000375.3161583.1245341.6494971.3465619.844671v.00117c.2241614.1478496.357266.3881965.357135.6449595-.0000729.2565555-.1331546.4972289-.357135.6449575v.00117h-.642608c-.3287058 0-.59326688.2645618-.59326688.5932665v1.7433885h.57212088v.1442645h3.0426952v-.1442627h.572121v-1.7433824c0-.3287055-.2645609-.5932668-.593267-.5932668h-.6461321v-.00117c-.2239811-.1477332-.3570621-.3884066-.3571348-.6449621-.0001266-.2475952.1261525-.4773086.3359886-.6261611.00173-.00123.00296-.00232.00471-.00352.00552-.00471.011026-.01048.016436-.015277.2227451-.1952603.3476982-.5291147.3477393-.8458471 0-.66438798-.5385927-1.20298087-1.2029807-1.20298064z" fill="#d0d0d0" opacity=".99"/></svg>

<?xml version="1.0" encoding="UTF-8" standalone="no"?>
<!-- Created with Inkscape (http://www.inkscape.org/) -->

<svg
   xmlns:dc="http://purl.org/dc/elements/1.1/"
   xmlns:cc="http://creativecommons.org/ns#"
   xmlns:rdf="http://www.w3.org/1999/02/22-rdf-syntax-ns#"
   xmlns:svg="http://www.w3.org/2000/svg"
   xmlns="http://www.w3.org/2000/svg"
   xmlns:sodipodi="http://sodipodi.sourceforge.net/DTD/sodipodi-0.dtd"
   xmlns:inkscape="http://www.inkscape.org/namespaces/inkscape"
   width="22"
   height="22"
   viewBox="0 0 5.8208332 5.8208335"
   version="1.1"
   id="svg8"
   inkscape:version="0.92+devel 15740 custom"
   sodipodi:docname="glypg-rubber-stamp.svg">
  <defs
     id="defs2" />
  <sodipodi:namedview
     id="base"
     pagecolor="#002466"
     bordercolor="#ffffff"
     borderopacity="0.32156863"
     inkscape:pageopacity="1"
     inkscape:pageshadow="2"
     inkscape:zoom="19.090909"
     inkscape:cx="11"
     inkscape:cy="11"
     inkscape:document-units="px"
     inkscape:current-layer="svg8"
     inkscape:document-rotation="0"
     showgrid="false"
     units="px"
     inkscape:pagecheckerboard="false"
     borderlayer="true"
     inkscape:showpageshadow="false"
     inkscape:window-width="1920"
     inkscape:window-height="1051"
     inkscape:window-x="0"
     inkscape:window-y="0"
     inkscape:window-maximized="1" />
  <metadata
     id="metadata5">
    <rdf:RDF>
      <cc:Work
         rdf:about="">
        <dc:format>image/svg+xml</dc:format>
        <dc:type
           rdf:resource="http://purl.org/dc/dcmitype/StillImage" />
        <dc:title></dc:title>
        <cc:license
           rdf:resource="http://creativecommons.org/licenses/by/4.0/" />
        <dc:creator>
          <cc:Agent>
            <dc:title>PixelPimps &amp; CodePoets</dc:title>
          </cc:Agent>
        </dc:creator>
      </cc:Work>
      <cc:License
         rdf:about="http://creativecommons.org/licenses/by/4.0/">
        <cc:permits
           rdf:resource="http://creativecommons.org/ns#Reproduction" />
        <cc:permits
           rdf:resource="http://creativecommons.org/ns#Distribution" />
        <cc:requires
           rdf:resource="http://creativecommons.org/ns#Notice" />
        <cc:requires
           rdf:resource="http://creativecommons.org/ns#Attribution" />
        <cc:permits
           rdf:resource="http://creativecommons.org/ns#DerivativeWorks" />
      </cc:License>
    </rdf:RDF>
  </metadata>
  <path
     style="opacity:0.98999999;fill:#d0d0d0;fill-opacity:1;stroke:none;stroke-width:0.18071042;stroke-linecap:square;stroke-miterlimit:4;stroke-dasharray:0.18071042, 0.7228417;stroke-dashoffset:0;stroke-opacity:1"
     d="m 2.909242,3.16e-6 c -0.664388,0 -1.2029809,0.53859289 -1.2029809,1.20298094 3.75e-5,0.3161583 0.1245341,0.6494971 0.3465619,0.844671 v 0.00117 C 2.2769844,2.1966747 2.410089,2.4370216 2.409958,2.6937846 2.4098851,2.9503401 2.2768034,3.1910135 2.052823,3.3387421 v 0.00117 H 1.410215 c -0.3287058,0 -0.59326688,0.2645618 -0.59326688,0.5932665 V 5.6765671 H 1.389069 V 5.8208316 H 4.4317642 V 5.6765689 h 0.572121 V 3.9331865 c 0,-0.3287055 -0.2645609,-0.5932668 -0.593267,-0.5932668 H 3.7644861 v -0.00117 C 3.540505,3.1910165 3.407424,2.9503431 3.4073513,2.6937876 3.4072247,2.4461924 3.5335038,2.216479 3.7433399,2.0676265 c 0.00173,-0.00123 0.00296,-0.00232 0.00471,-0.00352 0.00552,-0.00471 0.011026,-0.01048 0.016436,-0.015277 C 3.987231,1.8535692 4.1121841,1.5197148 4.1122252,1.2029824 4.1122252,0.53859442 3.5736325,1.53e-6 2.9092445,1.76e-6 Z"
     id="ellipse4336"
     inkscape:connector-curvature="0"
     sodipodi:nodetypes="sccccccssccccccsscccccccs"
     inkscape:label="#" />
</svg>
